X: 55
T:Glandyfi
M:6/8
L:1/8
Q:130
C:Trad
S:Blodau'r Grug Collection Vol. 1
R:Jig
A:Wales
Z:brian_martin12345@yahoo.com
K:G
D|G2GG2B|d2c B2G|A2A AGA|B2GE2D|G2GG2B|d2cB2G|c2B ABA|G3-G2:||
d|e2de2d|e2fg2d|e2d cBA|B2GE2D|G2GG2B|d2cB2G|c2B ABA|G3-G2:||

